app/assets/images/payment_icons/laser.svg

<svg xmlns="http://www.w3.org/2000/svg" width="38" height="24"><path fill="#4A3D99" d="M38 21c0 1.657-1.379 3-3.081 3h-31.838c-1.702 0-3.081-1.343-3.081-3v-18c0-1.657 1.379-3 3.081-3h31.838c1.702 0 3.081 1.343 3.081 3v18z"/><g fill="#DD52B3"><path d="M16.5 15h5v1h-5zM18 17h2v1h-2zM11 7h16v1h-16zM12.5 9h13v1h-13zM14 11h10v1h-10zM15 13h8v1h-8z"/></g></svg>

<svg xmlns="http://www.w3.org/2000/svg" width="38" height="24"><path fill="#4A3D99" d="M38 21c0 1.657-1.379 3-3.081 3H3.081C1.379 24 0 22.657 0 21V3c0-1.657 1.379-3 3.081-3h31.838C36.621 0 38 1.343 38 3v18z"/><path d="M16.5 15h5v1h-5zm1.5 2h2v1h-2zM11 7h16v1H11zm1.5 2h13v1h-13zm1.5 2h10v1H14zm1 2h8v1h-8z" fill="#DD52B3"/></svg>
